svg/alert_triangle_outline.svg

<?xml version="1.0" encoding="UTF-8" standalone="no"?>
<!-- Created with Inkscape (http://www.inkscape.org/) -->
<svg id="svg8" xmlns:rdf="http://www.w3.org/1999/02/22-rdf-syntax-ns#" xmlns="http://www.w3.org/2000/svg" xmlns:osb="http://www.openswatchbook.org/uri/2009/osb" height="48" width="48" version="1.1" xmlns:cc="http://creativecommons.org/ns#" viewBox="0 0 12.7 12.7" xmlns:dc="http://purl.org/dc/elements/1.1/">
 <title id="title4753">UIO-icon</title>
 <metadata id="metadata5">
  <rdf:RDF>
   <cc:Work rdf:about="">
    <dc:format>image/svg+xml</dc:format>
    <dc:type rdf:resource="http://purl.org/dc/dcmitype/StillImage"/>
    <dc:title>UIO-icon</dc:title>
    <dc:creator>
     <cc:Agent>
      <dc:title>Joaquín Urbano</dc:title>
     </cc:Agent>
    </dc:creator>
    <dc:rights>
     <cc:Agent>
      <dc:title>GPL</dc:title>
     </cc:Agent>
    </dc:rights>
   </cc:Work>
  </rdf:RDF>
 </metadata>
 <g id="layer1" transform="translate(0,-284.3)" fill="#333">
  <path id="path879" d="m24 4-20 40h40zm0 1.1484 19.162 38.338h-38.328zm-1.5605 11.684 0.19727 15.91h2.543l0.21289-15.91zm0.52539 0.50781h1.9062l-0.19922 14.889-1.5273 0.003906zm1.0273 18.631c-0.54812 0-0.96384 0.15799-1.248 0.47266-0.27406 0.30451-0.41211 0.68386-0.41211 1.1406 0 0.45677 0.13805 0.83807 0.41211 1.1426 0.28421 0.29436 0.69993 0.44141 1.248 0.44141 0.54812 0 0.96384-0.14704 1.248-0.44141 0.28421-0.30451 0.42773-0.68581 0.42773-1.1426 0-0.45677-0.14352-0.83611-0.42773-1.1406-0.28421-0.31466-0.69993-0.47266-1.248-0.47266zm-0.17188 0.51367h0.32031c0.33388 0.02189 0.97783 0.18211 1 0.98828v0.32031c-0.11179 0.70969-0.52189 0.79377-0.93945 0.86133h-0.32031c-0.65086-0.01909-0.95925-0.34988-1.0332-0.89453v-0.32031c0.069072-0.59246 0.34207-0.96574 0.97266-0.95508z" transform="matrix(.26458 0 0 .26458 0 284.3)"/>
 </g>
</svg>

<svg width="48" height="48" viewBox="0 0 48 48" fill="none" xmlns="http://www.w3.org/2000/svg">
<path d="M23.9997 4L4 43.9995H43.9995L23.9997 4ZM23.9997 5.14839L43.1615 43.4859H4.83399L23.9997 5.14839ZM22.4393 16.8322L22.6365 32.742H25.1795L25.3924 16.8322H22.4393ZM22.9647 17.34H24.8708L24.6716 32.2289L23.1443 32.2328L22.9647 17.34ZM23.9919 35.9708C23.4438 35.9708 23.0281 36.1288 22.744 36.4435C22.4699 36.748 22.3319 37.1273 22.3319 37.584C22.3319 38.0408 22.4699 38.4221 22.744 38.7266C23.0282 39.021 23.4439 39.168 23.9919 39.168C24.5401 39.168 24.9558 39.021 25.2399 38.7266C25.5241 38.4221 25.6676 38.0408 25.6676 37.584C25.6676 37.1273 25.5241 36.748 25.2399 36.4435C24.9557 36.1288 24.54 35.9708 23.9919 35.9708ZM23.8201 36.4845H24.1404C24.4742 36.5064 25.1182 36.6666 25.1404 37.4727V37.793C25.0286 38.5027 24.6185 38.5868 24.2009 38.6544H23.8806C23.2298 38.6353 22.9214 38.3045 22.8474 37.7598V37.4395C22.9165 36.8471 23.1895 36.4738 23.8201 36.4845Z" fill="#333333"/>
</svg>
